X: 8657
T: Cross Of Inverness, The
R: reel
M: 4/4
K: Gmajor
G|:DBBD EccB|cBAG FDDE|DBBD EccG|FDAF G2GE|
DBBD EccB|cBAG FDDF|BDGD cEAE|FDAF G2G||
c|:g2g2 ecce|^caea fdd=c|Bgfg ecc^g|a^ga^c d2d=c|
(3Bcd gd ecce|(3^cde ag fddg|gdBg ecAc|(3Bcd DF G3:|

